X:93
T: Verschlafener Jaeger
N: Q0152J
O: Mitteleuropa, Schweiz
R: Ballade, Verfuehrung, Versagen, Spott
M: 6/8
L: 1/16
K: G
D2 | G4G2B3AG2 | F4G2A4
D2 | G3AG2B2A2G2 | F4G2A4
Bc | d3BG2G2F2G2 | A4F2D4
Bc | d3BG2A3GF2 | G4z6

